communes/6416.svg

<?xml version="1.0" encoding="UTF-8" standalone="no"?>
<!-- Created with Inkscape (http://www.inkscape.org/) -->

<svg
   xmlns:dc="http://purl.org/dc/elements/1.1/"
   xmlns:cc="http://creativecommons.org/ns#"
   xmlns:rdf="http://www.w3.org/1999/02/22-rdf-syntax-ns#"
   xmlns:svg="http://www.w3.org/2000/svg"
   xmlns="http://www.w3.org/2000/svg"
   xmlns:sodipodi="http://sodipodi.sourceforge.net/DTD/sodipodi-0.dtd"
   xmlns:inkscape="http://www.inkscape.org/namespaces/inkscape"
   version="1.0"
   width="208.86046"
   height="244.65999"
   id="svg2780"
   inkscape:version="0.92.5 (2060ec1f9f, 2020-04-08)"
   sodipodi:docname="Milvignes-blazon.svg">
  <metadata
     id="metadata27">
    <rdf:RDF>
      <cc:Work
         rdf:about="">
        <dc:format>image/svg+xml</dc:format>
        <dc:type
           rdf:resource="http://purl.org/dc/dcmitype/StillImage" />
        <dc:title></dc:title>
      </cc:Work>
    </rdf:RDF>
  </metadata>
  <sodipodi:namedview
     pagecolor="#ffffff"
     bordercolor="#666666"
     borderopacity="1"
     objecttolerance="10"
     gridtolerance="10"
     guidetolerance="10"
     inkscape:pageopacity="0"
     inkscape:pageshadow="2"
     inkscape:window-width="3287"
     inkscape:window-height="1417"
     id="namedview25"
     showgrid="false"
     inkscape:zoom="2.0000001"
     inkscape:cx="32.011552"
     inkscape:cy="120.8501"
     inkscape:window-x="-8"
     inkscape:window-y="-8"
     inkscape:window-maximized="1"
     inkscape:current-layer="svg2780"
     inkscape:measure-start="104.255,149.787"
     inkscape:measure-end="104.255,126.383"
     showguides="true"
     inkscape:object-paths="true"
     inkscape:snap-intersection-paths="true" />
  <defs
     id="defs2782" />
  <path
     id="path4212-6"
     style="fill:#ffffff;fill-opacity:1;fill-rule:evenodd;stroke:#000000;stroke-width:1.99999988;stroke-linecap:butt;stroke-miterlimit:4;stroke-dashoffset:0;stroke-opacity:1"
     d="M 1.000033,149.10355 V 0.99999834 c 68.953472,0 137.906947,0 206.860417,0 V 149.10355 c 0,51.44535 -51.71515,94.56785 -103.43021,94.56785 -51.71506,0 -103.430207,-43.1225 -103.430207,-94.56785 z"
     inkscape:connector-curvature="0"
     sodipodi:nodetypes="sccscs" />
  <g
     id="g11229"
     transform="matrix(1.0840104,0,0,1.0834379,-8.5156255,-0.37909471)"
     style="stroke-width:0.9227441">
    <path
       id="path11039"
       d="M 53.750339,13.532133 A 25.710715,25.6961 0 0 0 28.039995,39.227863 25.710715,25.6961 0 0 0 53.750339,64.925807 25.710715,25.6961 0 0 0 79.460685,39.227863 25.710715,25.6961 0 0 0 53.750339,13.532133 Z m 0,8.814645 A 16.890834,16.881233 0 0 1 70.641026,39.227863 16.890834,16.881233 0 0 1 53.750339,56.108949 16.890834,16.881233 0 0 1 36.859652,39.227863 16.890834,16.881233 0 0 1 53.750339,22.346778 Z"
       style="opacity:1;fill:#feeb00;fill-opacity:1;stroke:#000000;stroke-width:0.9227441;stroke-miterlimit:4;stroke-dasharray:none;stroke-dashoffset:4.57999992;stroke-opacity:1"
       inkscape:connector-curvature="0" />
    <ellipse
       ry="10.227102"
       rx="10.232914"
       cy="85.158333"
       cx="53.750786"
       id="path11041"
       style="opacity:1;fill:#feeb00;fill-opacity:1;stroke:#000000;stroke-width:0.9227441;stroke-miterlimit:4;stroke-dasharray:none;stroke-dashoffset:4.57999992;stroke-opacity:1" />
    <ellipse
       ry="10.227102"
       rx="10.232914"
       cy="107.15276"
       cx="42.046619"
       id="path11041-0"
       style="opacity:1;fill:#feeb00;fill-opacity:1;stroke:#000000;stroke-width:0.9227441;stroke-miterlimit:4;stroke-dasharray:none;stroke-dashoffset:4.57999992;stroke-opacity:1" />
    <ellipse
       ry="10.227102"
       rx="10.232914"
       cy="129.1472"
       cx="53.750786"
       id="path11041-5"
       style="opacity:1;fill:#feeb00;fill-opacity:1;stroke:#000000;stroke-width:0.9227441;stroke-miterlimit:4;stroke-dasharray:none;stroke-dashoffset:4.57999992;stroke-opacity:1" />
    <ellipse
       ry="10.227102"
       rx="10.232914"
       cy="85.158333"
       cx="77.159126"
       id="path11041-7"
       style="opacity:1;fill:#feeb00;fill-opacity:1;stroke:#000000;stroke-width:0.9227441;stroke-miterlimit:4;stroke-dasharray:none;stroke-dashoffset:4.57999992;stroke-opacity:1" />
    <ellipse
       ry="10.227102"
       rx="10.232914"
       cy="85.158333"
       cx="30.342451"
       id="path11041-3"
       style="opacity:1;fill:#feeb00;fill-opacity:1;stroke:#000000;stroke-width:0.9227441;stroke-miterlimit:4;stroke-dasharray:none;stroke-dashoffset:4.57999992;stroke-opacity:1" />
    <ellipse
       ry="10.227102"
       rx="10.232914"
       cy="107.15276"
       cx="65.454948"
       id="path11041-1"
       style="opacity:1;fill:#feeb00;fill-opacity:1;stroke:#000000;stroke-width:0.9227441;stroke-miterlimit:4;stroke-dasharray:none;stroke-dashoffset:4.57999992;stroke-opacity:1" />
  </g>
  <path
     id="path11082-7"
     style="opacity:1;fill:#009645;fill-opacity:1;stroke:#000000;stroke-width:1;stroke-miterlimit:2;stroke-dasharray:none;stroke-dashoffset:4.57999992;stroke-opacity:1"
     d="M 156.61321,59.213424 C 175.37518,37.901079 189.09848,22.312343 207.86045,0.9999984 l 0,147.6780216 c 0.25867,15.27309 -4.28297,27.50893 -10.08022,38.95031 z"
     inkscape:connector-curvature="0"
     sodipodi:nodetypes="ccccc" />
  <path
     id="path11082-7-0"
     style="opacity:1;fill:#cc2918;fill-opacity:1;stroke:#000000;stroke-width:1;stroke-miterlimit:4;stroke-dasharray:none;stroke-dashoffset:4.57999992;stroke-opacity:1"
     d="M 84.958784,140.60803 C 103.72076,119.29569 117.44406,103.70695 136.20603,82.394611 l 55.42744,115.285049 c -4.91773,7.44883 -11.17788,13.44909 -17.53453,19.34522 z"
     inkscape:connector-curvature="0"
     sodipodi:nodetypes="ccccc" />
  <path
     id="path11082-7-0-4"
     style="opacity:1;fill:#1b63c6;fill-opacity:1;stroke:#000000;stroke-width:1;stroke-miterlimit:4;stroke-dasharray:none;stroke-dashoffset:4.57999992;stroke-opacity:1"
     d="m 25.3127,208.36199 c 13.18099,-14.97272 24.696357,-28.0534 39.238925,-44.57278 l 100.563405,59.85321 c -17.87609,12.21555 -38.4025,20.93479 -66.35486,19.85773 -31.573593,-2.7619 -54.626709,-16.27886 -73.44747,-35.13816 z"
     inkscape:connector-curvature="0"
     sodipodi:nodetypes="ccccc" />
  <path
     id="path4212-6-7"
     style="fill:none;fill-opacity:1;fill-rule:evenodd;stroke:#000000;stroke-width:1.99999988;stroke-linecap:butt;stroke-miterlimit:4;stroke-dashoffset:0;stroke-opacity:1"
     d="M 1.000033,149.10355 V 0.99999834 c 68.953472,0 137.906947,0 206.860417,0 V 149.10355 c 0,51.44535 -51.71515,94.56785 -103.43021,94.56785 -51.71506,0 -103.430207,-43.1225 -103.430207,-94.56785 z"
     inkscape:connector-curvature="0"
     sodipodi:nodetypes="sccscs" />
</svg>

<?xml version="1.0" encoding="UTF-8"?>
<svg version="1.0" viewBox="0 0 208.86 244.66" xmlns="http://www.w3.org/2000/svg" xmlns:cc="http://creativecommons.org/ns#" xmlns:dc="http://purl.org/dc/elements/1.1/" xmlns:rdf="http://www.w3.org/1999/02/22-rdf-syntax-ns#">
<metadata>
<rdf:RDF>
<cc:Work rdf:about="">
<dc:format>image/svg+xml</dc:format>
<dc:type rdf:resource="http://purl.org/dc/dcmitype/StillImage"/>
<dc:title/>
</cc:Work>
</rdf:RDF>
</metadata>
<path d="m1 149.1v-148.1h206.86v148.1c0 51.445-51.715 94.568-103.43 94.568s-103.43-43.122-103.43-94.568z" fill="#fff" fill-rule="evenodd" stroke="#000" stroke-width="2"/>
<g transform="matrix(1.084 0 0 1.0834 -8.5156 -.37909)" fill="#feeb00" stroke="#000" stroke-dashoffset="4.58" stroke-width=".92274">
<path d="m53.75 13.532a25.711 25.696 0 0 0-25.71 25.696 25.711 25.696 0 0 0 25.71 25.698 25.711 25.696 0 0 0 25.71-25.698 25.711 25.696 0 0 0-25.71-25.696zm0 8.8146a16.891 16.881 0 0 1 16.891 16.881 16.891 16.881 0 0 1-16.891 16.881 16.891 16.881 0 0 1-16.891-16.881 16.891 16.881 0 0 1 16.891-16.881z"/>
<ellipse cx="53.751" cy="85.158" rx="10.233" ry="10.227"/>
<ellipse cx="42.047" cy="107.15" rx="10.233" ry="10.227"/>
<ellipse cx="53.751" cy="129.15" rx="10.233" ry="10.227"/>
<ellipse cx="77.159" cy="85.158" rx="10.233" ry="10.227"/>
<ellipse cx="30.342" cy="85.158" rx="10.233" ry="10.227"/>
<ellipse cx="65.455" cy="107.15" rx="10.233" ry="10.227"/>
</g>
<path d="m156.61 59.213c18.762-21.312 32.485-36.901 51.247-58.213v147.68c0.25867 15.273-4.283 27.509-10.08 38.95z" fill="#009645" stroke="#000" stroke-dashoffset="4.58" stroke-miterlimit="2"/>
<path d="m84.959 140.61c18.762-21.312 32.485-36.901 51.247-58.213l55.427 115.29c-4.9177 7.4488-11.178 13.449-17.535 19.345z" fill="#cc2918" stroke="#000" stroke-dashoffset="4.58"/>
<path d="m25.313 208.36c13.181-14.973 24.696-28.053 39.239-44.573l100.56 59.853c-17.876 12.216-38.402 20.935-66.355 19.858-31.574-2.7619-54.627-16.279-73.447-35.138z" fill="#1b63c6" stroke="#000" stroke-dashoffset="4.58"/>
<path d="m1 149.1v-148.1h206.86v148.1c0 51.445-51.715 94.568-103.43 94.568s-103.43-43.122-103.43-94.568z" fill="none" stroke="#000" stroke-width="2"/>
</svg>
